X:1
T:Gipsy Laddy O
S:'Skinny' Crow
Z:George Butterworth
B:The Ploughboy's Glory, Ed M Dawney, EFDSS, 1977
F:http://www.folkinfo.org/songs
M:4/4     %Meter
L:1/8     %
K:G
D2 |A2 (AB) c2 B2 |A2 F2 HG2 FG |A2 d2 (d2 ed | c2) A2 Hd2
w:O~the gip-sies_ they laid here last night, It was wet and drear-***y o
 (3:2(AB)c |d2 ed c2 d2 |A2 AF G2 FG |(AB) (cB) B2 AG | F2 E2 D2  |]
w: And_ the song they sang pleased the fair la-dy's heart, And she came_ down-*stairs at_ mid-night o.
